storage/app/icons/phosphoricons/fill/number-square-six-fill.svg

<svg xmlns="http://www.w3.org/2000/svg" fill="currentColor" viewBox="0 0 256 256"><path d="M148 148a20 20 0 1 1-20-20 20 20 0 0 1 20 20m76-100v160a16 16 0 0 1-16 16H48a16 16 0 0 1-16-16V48a16 16 0 0 1 16-16h160a16 16 0 0 1 16 16m-60 100a36 36 0 0 0-36-36h-1.82l16.69-27.9a8 8 0 0 0-13.74-8.2s-32.4 54.28-32.47 54.42A36 36 0 1 0 164 148"/></svg>

<svg xmlns="http://www.w3.org/2000/svg" viewBox="0 0 256 256" fill="currentColor"><path d="M148,148a20,20,0,1,1-20-20A20,20,0,0,1,148,148ZM224,48V208a16,16,0,0,1-16,16H48a16,16,0,0,1-16-16V48A16,16,0,0,1,48,32H208A16,16,0,0,1,224,48ZM164,148a36,36,0,0,0-36-36c-.61,0-1.22,0-1.82,0L142.87,84.1a8,8,0,0,0-13.74-8.2s-32.4,54.28-32.47,54.42A36,36,0,1,0,164,148Z"/></svg>
